img/twitter.svg

<svg xmlns="http://www.w3.org/2000/svg" xmlns:xlink="http://www.w3.org/1999/xlink" preserveAspectRatio="xMidYMid" width="100" height="100" viewBox="0 0 100 100">
  <defs>
    <style>
      .cls-1 {
        fill: #0fc;
        fill-rule: evenodd;
      }
    </style>
  </defs>
  <path d="M91.006,23.929 C87.970,25.265 84.743,26.219 81.326,26.601 C84.838,24.501 87.495,21.161 88.729,17.248 C85.502,19.157 81.896,20.588 78.100,21.352 C74.968,18.107 70.603,16.007 65.763,16.007 C56.464,16.007 48.966,23.547 48.966,32.900 C48.966,34.236 49.061,35.572 49.346,36.813 C35.396,36.050 23.059,29.655 14.708,19.443 C13.285,21.924 12.430,24.501 12.430,27.651 C12.430,33.473 15.373,38.627 19.927,41.681 C17.176,41.585 14.613,40.822 12.336,39.581 C12.336,39.676 12.336,39.676 12.336,39.772 C12.336,47.980 18.125,54.851 25.811,56.379 C24.388,56.760 22.870,56.951 21.351,56.951 C20.307,56.951 19.263,56.856 18.219,56.665 C20.307,63.346 26.571,68.309 33.878,68.404 C28.184,72.985 20.876,76.421 13.000,76.421 C11.671,76.421 10.343,76.326 9.014,76.135 C16.416,80.907 25.337,83.007 34.827,83.007 C65.763,83.007 82.655,57.238 82.655,34.904 C82.655,34.141 82.655,33.473 82.655,32.709 C85.882,30.323 88.729,27.364 91.006,23.929 Z" class="cls-1"/>
</svg>

<svg id="9476f1a5-e37c-47a9-8c6e-3953fb770189" data-name="Layer 1" xmlns="http://www.w3.org/2000/svg" viewBox="0 0 81.99 67"><defs><style>.f2c35083-60a6-4216-96f2-afb686b98866{fill:currentColor;}</style></defs><title>twitter</title><path class="f2c35083-60a6-4216-96f2-afb686b98866" d="M91,23.93a33.11,33.11,0,0,1-9.68,2.67,16.84,16.84,0,0,0,7.4-9.35,34.23,34.23,0,0,1-10.63,4.1A17.16,17.16,0,0,0,65.76,16,16.82,16.82,0,0,0,49,32.9a17.64,17.64,0,0,0,.38,3.91A47.73,47.73,0,0,1,14.71,19.44a15.89,15.89,0,0,0-2.28,8.21,16.85,16.85,0,0,0,7.5,14,17,17,0,0,1-7.59-2.1v0.19A16.89,16.89,0,0,0,25.81,56.38a17.52,17.52,0,0,1-7.59.29A16.77,16.77,0,0,0,33.88,68.4c-5.69,4.58-13,8-20.88,8a28,28,0,0,1-4-.29C16.42,80.91,25.34,83,34.83,83c30.94,0,47.83-25.77,47.83-48.1V32.71A34.94,34.94,0,0,0,91,23.93Z" transform="translate(-9.01 -16.01)"/></svg>
